X:1
T:Villanelle des petits canards
T:Villanelle des petits canards
T:Emmanuel Chabrier
T:Rosemonde Gérard
T:OpenScore (CC0)
T:OpenScore (CC0)
T:OpenScore (CC0)
T:OpenScore (CC0)
T:OpenScore (CC0)
T:OpenScore (CC0)
C:Emmanuel Chabrier
Z:Rosemonde Gérard
Z:OpenScore (CC0)
%%score 1 { ( 2 4 ) | 3 }
L:1/8
Q:1/4=120
M:2/4
K:F
V:1 treble nm="Voice"
V:2 treble nm="Piano"
V:4 treble 
V:3 treble 
V:1
"^Allegretto poco mosso" z || z4 | z4 | z4 | z2 z .A || %5
w: ||||Ils|
"^très simplement et très rhythmé" .G z z F/ G/ | .A .B .c z | B{/c} B A A | G{/A} G !>!d D | %9
w: vont, les pe-|tits ca- nards,|Tout au bord de|la ri- viè- re,|
!f! F2 A c | A G/ A/{/A} !tenuto!.F2- | F2- F z | z4 ||!p! .A .A .G z/ E/ | .G .c .A!f! A | %15
w: Com- me de|bons cam- pa- gnards!|_ _||Bar- bo- teurs et|fré- til- lards, Heu-|
!<(! ^G G/ A/ =B ^c!<)! |!>(!{/^c} =B A!>)! z!pp! .A | .G z z!<(! .F/ .G/ | .A .B!<)! .c z | %19
w: reux de trou- bler l'eau|clai- re, Ils|vont, les pe-|tits ca- nards,|
 z!f!!<(! c A G/ A/ | B c d!<)! z |!p! c{/d} c B{/c} B |!<(! A{/=B} A!<)! e d |!f! F2 A c | %24
w: Ils sem- blent un|peu jo- bards,|Mais ils sont à|leur af- fai- re,|Com- me de|
 A G/ A/{/A} F2- | F2- F z | z2 z!f! c || _e z _E/ E/ E/ E/ | D z z D | (A D A D/ D/ | %30
w: bons cam- pa- gnards!|_ _|Dans|l'eau plei- ne de tè-|tards, Où|trem- ble'une her- be lé-|
 A D) z!pp! .B | .A z z .G/ .A/ | .B .c .d z | !>!d .^F z .E | =B A/ ^G/ A z | %35
w: gè- re, Ils|vont, les pe-|tits ca- nards,|Mar- chant par|grou- pes é- pars,|
!mf! !tenuto!D !tenuto!D !tenuto!D !tenuto!D | !tenuto!D !tenuto!D !tenuto!D !tenuto!D | %37
w: D'une al- lu- re|ré- gu- liè- re,|
!f! D2 C C | C C/ C/ !tenuto!.F2- | F2- F z | z4 ||!mf! A A G E |!<(! G!<)! c!>(! A!>)!!pp! A/ A/ | %43
w: Com- me de|bons cam- pa- gnards!|_ _||Dans le beau vert|d'é- pi- nards De l'hum-|
 ^G3/2 A/!<(! =B ^c!<)! |{/^c} .=B .A z!pp! (.A | .G) z z!<(! F/ G/ | A B c!<)! z | %47
w: i- de cres- son-|niè- re, Ils|vont, les pe-|tits ca- nards,|
 z c A G/!<(! A/ | B c d!<)! z | c{/d} c B{/c} B |!<(! A{/=B} A!<)! e d |!f! F2 A c | %52
w: Et quoi qu'un peu|go- gue- nards,|Ils * d'hu- meur|dé- bon- nai- re|Com- me de|
 A G/ A/ !tenuto!.F2- | F2- F z | z2 z!f! c || _e z !>!_E/ E/ E/ E/ | D z z D/ D/ | A D A D | %58
w: bons cam- pa- gnards!|_ _|Fai-|sant, en cer- cles ba-|vards, Un vrai|bruit de pé- tau-|
 A D z!pp! .B | .A z z!<(! G/ A/ | .B .c .d!<)! z | .d .^F z .E | =B A/ ^G/ A z | %63
w: diè- re, Ils|vont, les pe-|tits ca- nards,|Do- dus, lus-|trés et gail- lards,|
!mf! !tenuto!D !tenuto!D !tenuto!D !tenuto!D | !tenuto!D !tenuto!D !tenuto!D !tenuto!D | %65
w: Ils sont gais à|leur ma- niè- re,|
 !^!D2"^dim."!>(! C C | C C/ C/!>)!!p! F z ||"^espressivo" (!>!d2 c2 | F4-) | %69
w: Com- me de|bons cam- pa- gnards!|A- mou-|reux|
 F !tenuto!A !tenuto!F !tenuto!D | !tenuto!=B,4- | B,!pp! =B, (E2- | E2 ^G ^F) | (E A A2- | %74
w: * et na- sil-|lards,|* Cha- cun|* a- vec|sa com- mè-|
 A2 A)!ppp! .A | .G z z .d | .c z z .A | .G z z!ppp! F/ G/ | .A .B .c z | %79
w: * re, Ils|vont, ils|vont, ils|vont, les pe-|tits ca- nards,|
!f![Q:1/4=120]"_Allarg. al fine"[Q:1/4=115]"^Allarg. al fine" F2[Q:1/4=110]"^T" A c | %80
w: Com- me de|
[Q:1/4=105]"^T" A4 |[Q:1/4=100]"^T" !tenuto!G2[Q:1/4=95]"^T" !tenuto!A2 | %82
w: bons|cam- pa-|
[Q:1/4=90]"^T"{/A} !tenuto!F2- F z |] %83
w: gnards! _|
V:2
!mf! (.[da] || .[dg]) z z (.[da] | .[dg]) z z (.[da] | .[dg].f/.g/ .[da].[df] | %4
 .[dg]) z z (.[FA] || .[EG]) z .c (.F/.G/ | .[FA].[GB] .[Ac]) z | .[da].[dg] .[cg].[cf] | %8
 .[Gd].[Gc] .[Fc].[FB] |!f! !tenuto!.[DF]2 .[CFA].[Cc] | .[FA].[EG] [FBdf]2 | %11
 .[cfa].[cc'] .[fa]/.d/.[eg]/.c/ | !wedge!f z !wedge![fc'f'] z ||!p! .[FA].[FA] !tenuto!.[CEG]2 | %14
 .[EGc].[EGc] !tenuto!.[FA]2 |!pp! .[D^F].[DE] .[DF].[DE] | .[^CE=B].[CEA] z!pp! (.[=FA] | %17
 .[EG]) z .c (.F/.G/ | .[FA].[GB] .[Ac]) z | .[Ff]!p! .c .A.G/.A/ | .B.[Ac] .[Bd] z | %21
!pp! .c/.A/.c/.A/ .B/.G/.B/.G/ | .A/.G/.A/.G/ .[^Fe].[=Fd] |!f! !tenuto!.[DF]2 .[CFA].[Cc] | %24
 .[FA].[EG] [FBdf]2 | .[cfa].[cc'] .[fa]/.d/.[eg]/.c/ | f z [fc'f'] z || [Ac_e] z ([A,-_E]2 | %28
 [A,D])!p! z z (.[D^F] | .[_EG] .[D^F] .[EG] .[DF] | .[_EG] .[D^F]) z (.[GB] | %31
 .[^FA]) z .d .G/.A/ | .B.c .[Ed] z | !>![^Fd].[DF] z .[DE] | .[^C=B].[CA]/.^G/ .[DA] z | %35
!pp! .d.a .d.a | .d/.a/.d/.a/ .g/.d'/.b/.g/ | f2!p! [ca][cc'] | [ca][cg]!f! [FBdf]2 | %39
 .[cfa].[cc'] .[fa]/.d/.[eg]/.c/ | f z [fc'f'] z ||!p! .[FA].[FA] !tenuto!.[CEG]2 | %42
 .[EGc].[EGc] !tenuto!.[FA]2 |!pp! .[D^F].[DE] .[DF].[DE] | .[^CE=B].[CEA] z!pp! (.[=FA] | %45
 .[EG]) z .c (.F/.G/ | .[FA].[GB] .[Ac]) z | .[Ff]!p! .c .A.G/.A/ | .B.[Ac] .[Bd] z | %49
!pp! .c/.A/.c/.A/ .B/.G/.B/.G/ | .A/.G/.A/.G/ .[^Fe].[=Fd] | !tenuto!.[DF]2 .[CFA].[Cc] | %52
 .[FA].[EG] [FBdf]2 | [cfa][cc'] .[fa]/.d/.[eg]/.c/ | .f z [fc'f'] z || [Ac_e] z ([A,-_E]2 | %56
 [A,D])!p! z z (.[D^F] | .[_EG] .[D^F] .[EG] .[DF] | .[_EG] .[D^F]) z (.[GB] | %59
 .[^FA]) z .d .G/.A/ | .B.c .[=Ed] z | !>![^Fd].[DF] z .[DE] | .[^C=B].[CA]/.^G/ .[DA] z | %63
!pp! .d.a .d.a | .d/.a/.d/.a/ .g/.d'/.b/.g/ | f2!p! [ca][cc'] | .[ca].[cg]/.a/!p! .[cf] z || %67
!pp! ([_EF]/A,/[EF]/A,/ [EF]/A,/[EF]/A,/) | ([_EF]/A,/[EF]/A,/ [EF]/A,/[EF]/A,/) | %69
 ([FA]/=B,/[FA]/B,/ [FA]/B,/[FA]/B,/) | ([FA]/=B,/[FA]/B,/ [FA]/B,/[FA]/B,/) |!pp! (E2 .^G.B) | %72
 ^G^F/G/ E2 | (!tenuto!A2 ^ce) | ^c(=B/c/ A) z | z (.[=B,FA] .[_B,EG]) z | z (.[Ed] .[Fc]) z | %77
 z!pp! (.[=Bfa] .[_Beg]) z | z (.[f_b] .[fc']) z |!f! z .D.F.A | z .^C.E.A | %81
 !tenuto!.[D=FG]2 !tenuto!.[B,=CEA]2 | [A,CF]2 !fermata![fc'f']2 |] %83
V:3
 (.[CFB] || .[CEB]) z z (.[CFB] | .[CEB]) z z (.[CFB] | .[CEB].[CEB] .[CFB].[CFB] | %4
 .[CEB]) z z (.[B,C] || [B,C]) z[K:bass] [C,,C,] z | (.[B,C].[B,C] .[A,C]) z | %7
[K:treble] .[CB].[CB] .[CA].[CA] | .[F,E].[F,E] .[F,D].[F,D] | %9
[K:bass] !tenuto!.[C,B,]2 .[C,A,].[C,A,] | .[C,B,].[C,B,] !arpeggio![F,B,D]2 | %11
[K:treble] .[CFA].[CFA] .[CB].[CB] | !wedge![FA] z !arpeggio!!wedge![Fc] z || %13
[K:bass] .D,,.A,, !tenuto!.D,2 | .D,.A, !tenuto!.D2 | .E,.E,, .E,.E,, | .A,,.A,,, z (.[_B,=C] | %17
 .[B,C]) z .[C,,C,] z | (.[B,C].[B,C] .[A,C]) z | .[F,,F,] z[K:treble] .[_EF].[EF] | %20
 .[_EF].[EF] .[DF] z |[K:bass] .[^F,_E].[F,E] .[G,D].[G,D] | .[A,^C].[A,C] .[D,D].[G,=B,] | %23
 !tenuto!.[C,_B,]2 .[C,A,].[C,A,] | .[C,B,].[C,B,] !arpeggio![F,B,D]2 | %25
[K:treble] [CFA][CFA] [CB][CB] | [FA] z !arpeggio![F,CA] z || z2[K:bass] ([F,,C,-]2 | %28
 [^F,,C,]2)({D,E,)^F,G,} A, (.C, | .^C, .^B,, .C, .B,, | .^C, .D,) z (.[=CD] | %31
 .[CD]) z .[D,,D,] z | .[B,D].[A,C] .[G,B,] z | !>!A,,.[^G,=B,] z .[G,B,] | %34
 .[=G,A,].[G,A,] .[^F,A,] z |[K:treble] .[D^FA].=C .[DFA].C | .[D^FA].C [B,DG]2 | %37
 [=B,=FA]2 [CFA][CFA] | [CE_B][CEB][K:bass] !arpeggio![F,B,D]2 | %39
[K:treble] .[CFA].[CFA] .[CB].[CB] | [FA] z [F,CA] z ||[K:bass] .D,,.A,, !tenuto!.D,2 | %42
 .D,.A, !tenuto!.D2 | .E,.E,, .E,.E,, | .A,,.A,,, z (.[_B,=C] | .[B,C]) z .[C,,C,] z | %46
 (.[B,C].[B,C] .[A,C]) z | .[F,,F,] z[K:treble] .[_EF].[EF] | .[_EF].[EF] .[DF] z | %49
[K:bass] .[^F,_E].[F,E] .[G,D].[G,D] | .[A,^C].[A,C] .[D,D].[G,=B,] | %51
 !tenuto!.[C,_B,]2 .[C,A,].[C,A,] | .[C,B,].[C,B,] !arpeggio![F,B,D]2 | %53
[K:treble] [CFA][CFA] [CB][CB] | [FA] z !arpeggio![F,CA] z || z2[K:bass] ([F,,C,-]2 | %56
 [^F,,C,]2)({D,E,)^F,G,} A, (.C, | .^C, .^B,, .C, .B,, | .^C, .D,) z (.[=CD] | %59
 .[CD]) z .[D,,D,] z | .[B,D].[A,C] .[G,B,] z | !>!A,,.[^G,=B,] z .[G,B,] | %62
 .[=G,A,].[G,A,] .[^F,A,] z |[K:treble] .[D^FA].=C .[DFA].C | .[D^FA].C [B,DG]2 | %65
 [=B,FA]2 [CFA][CFA] | .[CEB].[CEB] .[FA] z ||[K:bass] !tenuto!.F,,2 .A,,.C, | A,,(G,,/A,,/) F,,2 | %69
 !tenuto!.D,2 .F,.A, | .F,E,/F,/ D,2 | (E,,/E,/E,,/E,/ E,,/E,/E,,/E,/) | %72
 (E,,/E,/E,,/E,/ E,,/E,/E,,/E,/) | (E,,/E,/E,,/E,/ E,,/E,/E,,/E,/) | (E,,/E,/E,,/E,/ E,,) z | %75
 =C,, z z2 | .C,.^G, .A, z |[K:treble] C z z (D/E/ | .F).G .A z |[K:bass] !tenuto!.[D,F,A,]4 | %80
 !tenuto!.[A,,E,A,]4 | _B,,G,, !tenuto!.[C,,C,]2 | .F,, !fermata!F,,,3 |] %83
V:4
 x || x4 | x4 | x4 | x4 || x4 | x4 | x4 | x4 | x4 | x4 | x4 | x4 || x4 | x4 | x4 | x4 | x4 | x4 | %19
 x4 | x4 | x4 | x4 | x4 | x4 | x4 | x4 || x4 | x4 | x4 | x4 | x4 | x4 | x4 | x4 | x4 | x4 | x4 | %38
 x4 | x4 | x4 || x4 | x4 | x4 | x4 | x4 | x4 | x4 | x4 | x4 | x4 | x4 | x4 | x4 | x4 || x4 | x4 | %57
 x4 | x4 | x4 | x4 | x4 | x4 | x4 | x4 | x4 | x4 || x4 | x4 | x4 | x4 | D4 | D4 | ^C4 | ^C2- C z | %75
 x4 | x4 | x4 | x4 | x4 | x4 | x4 | x2 !fermata![CFA]2 |] %83

